icons/q.svg

<svg width="48" height="48" viewBox="0 0 48 48" fill="none" xmlns="http://www.w3.org/2000/svg">
<path fill-rule="evenodd" clip-rule="evenodd" d="M9 24C9 15.7157 15.7157 9 24 9C32.2843 9 39 15.7157 39 24C39 27.0559 38.0852 29.9006 36.5147 32.2721L38.1213 33.8787C39.2929 35.0503 39.2929 36.9497 38.1213 38.1213C36.9497 39.2929 35.0503 39.2929 33.8787 38.1213L32.2721 36.5147C29.9006 38.0852 27.0559 39 24 39C15.7157 39 9 32.2843 9 24ZM24 11C16.8203 11 11 16.8203 11 24C11 31.1797 16.8203 37 24 37C26.9212 37 29.6148 36.0377 31.7849 34.4124L32.4786 33.8928L35.2929 36.7071C35.6834 37.0976 36.3166 37.0976 36.7071 36.7071C37.0976 36.3166 37.0976 35.6834 36.7071 35.2929L33.8928 32.4786L34.4124 31.7849C36.0377 29.6148 37 26.9212 37 24C37 16.8203 31.1797 11 24 11ZM24 15C19.0294 15 15 19.0294 15 24C15 28.9706 19.0294 33 24 33C25.3907 33 26.7061 32.6852 27.8804 32.1231L25.8787 30.1213C24.7071 28.9497 24.7071 27.0503 25.8787 25.8787C27.0503 24.7071 28.9497 24.7071 30.1213 25.8787L32.1231 27.8804C32.6852 26.7061 33 25.3907 33 24C33 19.0294 28.9706 15 24 15ZM13 24C13 17.9249 17.9249 13 24 13C30.0751 13 35 17.9249 35 24C35 26.2405 34.3291 28.3274 33.1769 30.067L32.5013 31.0871L28.7071 27.2929C28.3166 26.9024 27.6834 26.9024 27.2929 27.2929C26.9024 27.6834 26.9024 28.3166 27.2929 28.7071L31.0871 32.5013L30.067 33.1769C28.3274 34.3291 26.2405 35 24 35C17.9249 35 13 30.0751 13 24Z" fill="black"/>
</svg>

<svg
  xmlns="http://www.w3.org/2000/svg"
  width="24"
  height="24"
  viewBox="0 0 24 24"
  fill="none"
  stroke="currentColor"
  stroke-width="2"
  stroke-linecap="round"
  stroke-linejoin="round"
>
  <path
    fill-rule="evenodd"
    d="M9 24c0-8.284 6.716-15 15-15s15 6.716 15 15c0 3.056-.915 5.9-2.485 8.272l1.606 1.607a3 3 0 1 1-4.242 4.242l-1.607-1.606A14.93 14.93 0 0 1 24 39c-8.284 0-15-6.716-15-15m15-13c-7.18 0-13 5.82-13 13s5.82 13 13 13c2.921 0 5.615-.962 7.785-2.588l.694-.52 2.814 2.815a1 1 0 0 0 1.414-1.414l-2.814-2.814.52-.694A12.94 12.94 0 0 0 37 24c0-7.18-5.82-13-13-13m0 4a9 9 0 1 0 0 18c1.39 0 2.706-.315 3.88-.877l-2.001-2.002a3 3 0 1 1 4.242-4.242l2.002 2.001A9 9 0 0 0 33 24a9 9 0 0 0-9-9m-11 9c0-6.075 4.925-11 11-11s11 4.925 11 11c0 2.24-.67 4.327-1.823 6.067l-.676 1.02-3.794-3.794a1 1 0 0 0-1.414 1.414l3.794 3.794-1.02.676A10.95 10.95 0 0 1 24 35c-6.075 0-11-4.925-11-11"
    clip-rule="evenodd"
  />
</svg>
